styles/3/Numix/128/places/green-folder-saved-search.svg

<?xml version="1.0" encoding="UTF-8" standalone="no"?>
<!-- Created with Inkscape (http://www.inkscape.org/) -->

<svg
   xmlns:dc="http://purl.org/dc/elements/1.1/"
   xmlns:cc="http://creativecommons.org/ns#"
   xmlns:rdf="http://www.w3.org/1999/02/22-rdf-syntax-ns#"
   xmlns:svg="http://www.w3.org/2000/svg"
   xmlns="http://www.w3.org/2000/svg"
   xmlns:sodipodi="http://sodipodi.sourceforge.net/DTD/sodipodi-0.dtd"
   xmlns:inkscape="http://www.inkscape.org/namespaces/inkscape"
   width="128"
   height="128"
   id="svg2"
   version="1.1"
   inkscape:version="0.91 r"
   sodipodi:docname="green-folder-saved-search.svg"
   inkscape:export-filename="/media/Data/Main/Visuals/Icons/Numix/Desktop/repos/numix-wiki/Gjorgi/Numix-folders/48/New/folder-144.png"
   inkscape:export-xdpi="270"
   inkscape:export-ydpi="270">
  <defs
     id="defs4" />
  <sodipodi:namedview
     id="base"
     pagecolor="#ffffff"
     bordercolor="#666666"
     borderopacity="1.0"
     inkscape:pageopacity="0.0"
     inkscape:pageshadow="2"
     inkscape:zoom="4.9170839"
     inkscape:cx="46.382197"
     inkscape:cy="63.913227"
     inkscape:document-units="px"
     inkscape:current-layer="layer1"
     showgrid="true"
     inkscape:window-width="1280"
     inkscape:window-height="998"
     inkscape:window-x="0"
     inkscape:window-y="0"
     inkscape:window-maximized="1"
     showguides="true"
     inkscape:guide-bbox="true">
    <inkscape:grid
       type="xygrid"
       id="grid2985"
       empspacing="5"
       visible="true"
       enabled="true"
       snapvisiblegridlinesonly="true" />
  </sodipodi:namedview>
  <metadata
     id="metadata7">
    <rdf:RDF>
      <cc:Work
         rdf:about="">
        <dc:format>image/svg+xml</dc:format>
        <dc:type
           rdf:resource="http://purl.org/dc/dcmitype/StillImage" />
        <dc:title />
      </cc:Work>
    </rdf:RDF>
  </metadata>
  <g
     inkscape:label="Layer 1"
     inkscape:groupmode="layer"
     id="layer1"
     transform="translate(0,-924.3622)">
    <path
       inkscape:connector-curvature="0"
       id="path5"
       d="m 12,948.3622 104,0 0,40 -104,0 z m 0,0"
       style="fill:#388e3c;fill-opacity:1;fill-rule:nonzero;stroke:none" />
    <path
       inkscape:connector-curvature="0"
       id="path7"
       d="m 24,948.3622 c 0,-4 0,-8 5.81641,-8 l 20.36719,0 c 5.8164,0 5.8164,4 5.8164,8 l 0,4 -32,0 z m 0,0"
       style="fill:#388e3c;fill-opacity:1;fill-rule:nonzero;stroke:none" />
    <path
       inkscape:connector-curvature="0"
       id="path9"
       d="m 20,956.3622 88,0 0,19.87109 -88,0 z m 0,0"
       style="fill:#94979e;fill-opacity:1;fill-rule:nonzero;stroke:none" />
    <path
       inkscape:connector-curvature="0"
       id="path11"
       d="m 28,952.3622 76,0 0,52 -76,0 z m 0,0"
       style="fill:#d7d7d9;fill-opacity:1;fill-rule:nonzero;stroke:none" />
    <path
       inkscape:connector-curvature="0"
       id="path13"
       d="m 24,960.3622 76,0 0,52 -76,0 z m 0,0"
       style="fill:#f8f8f8;fill-opacity:1;fill-rule:nonzero;stroke:none" />
    <path
       inkscape:connector-curvature="0"
       id="path15"
       d="m 4,964.3622 120,0 -8.57031,72 -102.85937,0 z m 0,0"
       style="fill:#66bb6a;fill-opacity:1;fill-rule:nonzero;stroke:none" />
    <path
       style="opacity:0.4;fill:#103612;fill-opacity:1;stroke:none"
       d="M 72 48 C 60.954306 48 52 56.9543 52 68 C 52 72.198355 53.289626 76.095273 55.5 79.3125 C 55.008237 79.508296 54.555508 79.788242 54.15625 80.1875 L 37.1875 97.15625 C 35.620551 98.723199 35.620551 101.24555 37.1875 102.8125 C 38.754449 104.37945 41.276801 104.37945 42.84375 102.8125 L 59.8125 85.84375 C 60.211758 85.444492 60.491704 84.991763 60.6875 84.5 C 63.904727 86.710373 67.801647 88 72 88 C 83.045694 88 92 79.0457 92 68 C 92 56.9543 83.045694 48 72 48 z M 72 54 C 79.731986 54 86 60.26801 86 68 C 86 75.732 79.731986 82 72 82 C 64.268014 82 58 75.732 58 68 C 58 60.26801 64.268014 54 72 54 z "
       transform="translate(0,924.3622)"
       id="rect3055" />
  </g>
</svg>

<!-- Created with Inkscape (http://www.inkscape.org/) -->
<svg xmlns="http://www.w3.org/2000/svg" viewBox="0 0 128 128">
 <g transform="translate(0,-924.3622)">
  <path d="m 12 948.36 104 0 0 40 -104 0 z m 0 0" style="fill:#388e3c;fill-opacity:1;stroke:none;fill-rule:nonzero"/>
  <path d="m 24 948.36 c 0 -4 0 -8 5.816 -8 l 20.367 0 c 5.816 0 5.816 4 5.816 8 l 0 4 -32 0 z m 0 0" style="fill:#388e3c;fill-opacity:1;stroke:none;fill-rule:nonzero"/>
  <path d="m 20 956.36 88 0 0 19.871 -88 0 z m 0 0" style="fill:#94979e;fill-opacity:1;stroke:none;fill-rule:nonzero"/>
  <path d="m 28 952.36 76 0 0 52 -76 0 z m 0 0" style="fill:#d7d7d9;fill-opacity:1;stroke:none;fill-rule:nonzero"/>
  <path d="m 24 960.36 76 0 0 52 -76 0 z m 0 0" style="fill:#f8f8f8;fill-opacity:1;stroke:none;fill-rule:nonzero"/>
  <path d="m 4 964.36 120 0 -8.57 72 -102.86 0 z m 0 0" style="fill:#66bb6a;fill-opacity:1;stroke:none;fill-rule:nonzero"/>
  <path d="m 72 48 c -11.05 0 -20 8.954 -20 20 c 0 4.198 1.29 8.095 3.5 11.313 c -0.492 0.196 -0.944 0.476 -1.344 0.875 l -16.969 16.969 c -1.567 1.567 -1.567 4.089 0 5.656 c 1.567 1.567 4.089 1.567 5.656 0 l 16.969 -16.969 c 0.399 -0.399 0.679 -0.852 0.875 -1.344 c 3.217 2.21 7.114 3.5 11.313 3.5 c 11.05 0 20 -8.954 20 -20 c 0 -11.05 -8.954 -20 -20 -20 z m 0 6 c 7.732 0 14 6.268 14 14 c 0 7.732 -6.268 14 -14 14 c -7.732 0 -14 -6.268 -14 -14 c 0 -7.732 6.268 -14 14 -14 z" transform="translate(0,924.3622)" style="fill:#103612;opacity:0.4;fill-opacity:1;stroke:none"/>
 </g>
</svg>
